X:1
T:Brewer, LM
T:John Wyeth, 1813
T:Brewer, LM
T:Public Domain
C:John Wyeth, 1813
Z:Public Domain
%%score ( 1 2 ) ( 3 4 )
L:1/8
M:4/4
K:F
V:1 treble 
V:2 treble 
V:3 bass 
V:4 bass 
V:1
 [CF]4 [CA]2 [CF]2 | [Cc]6 [FA]2 | ([Fd]2 [Ec]2 [Fd]2) [Ge]2 | [Af]4 z2 [Ac]2 | [Ad]4 [Fc]4 | %5
 ([CB]2 [DA]2 [EG]2) [Df]2 | [Ce]4 [=B,d]4 | [Cc]8 | [Ac]4 [Ad]2 [Ae]2 | [Af]6 [Fc]2 | %10
 ([Ed]2 [Fc]2 [GB]2) [FA]2 | [EG]4 z2 [FA]2 | ([FB]2 [Ec]2 [Fd]2) [Ge]2 | %13
 ([Af]2 [Ge][Fd] [Ec]2) [FB]2 | [FA]4 [EG]4 | F8 |] %16
V:2
 x8 | x8 | x8 | x8 | x8 | x8 | x8 | x8 | x8 | x8 | x8 | x8 | x8 | x8 | x8 | F8 |] %16
V:3
 [F,C]4 [F,C]2 [F,C]2 | (F,2 G,2 A,2) [F,C]2 | ([B,F]2 [A,E]2 [B,D]2) C2 | [F,C]4 z2 [F,C]2 | %4
 [B,F]4 [A,F]4 | ([G,E]2 [F,F]2 [E,G]2) [F,E]2 | [G,C]4 [G,D]4 | [C,E]8 | [F,F]4 [F,F]2 [A,C]2 | %9
 [F,C]6 [A,C]2 | (B,2 [A,C]2 [G,D]2) [F,F]2 | [C,C]4 z2 C2 | ([B,D]2 [A,C]2 [G,B,]2) (A,G,) | %13
 (F,2 G,2 A,2) [F,E]2 | C4 [C,C]4 | [F,A,]8 |] %16
V:4
 x8 | F6 x2 | x6 C2 | x8 | x8 | x8 | x8 | x8 | x8 | x8 | B,2 x6 | x6 C2 | x6 C2 | C6 x2 | C4 x4 | %15
 x8 |] %16

